X: 1
T: Peas Breakdown
T: Pete's Breakdown; Peace River Breakdown
R: reel
N: handwritten MS of unknown origin (2005)
M: C|
L: 1/8
K: Bm
|: "Bm"b2a2 f2e2 | "Bm"d2B2 B2Bd | "F#m"cAFA fedc | "Bm"Bcde "F#m"f3f || "Bm"b2a2 (3fbf e2 | "Bm"dBBB B2Bd |
| "F#m"cAFA fedc | "Bm"Bd"A"cA "Bm"B2z2 :: FE | "D"D2A,D FEDF | "D"ADFA dced | "A7"cGGG GBAG |
| "D"FDDD "A7"DGFE || "D"D2A,D FEDF | ADFA dfed | "A7"cGGG GBAG | FDEC "D"D2 :|
